flaticon/household/couch-3.svg

<svg xmlns="http://www.w3.org/2000/svg" width="32" height="32" viewBox="0 0 24 24">
    <path d="M 24 10.398438 C 24 9.808594 23.675781 9.300781 23.199219 9.023438 L 23.199219 7.96875 C 23.199219 6 21.597656 4.398438 19.632812 4.398438 L 13.929688 4.398438 C 13.222656 4.398438 12.546875 4.632812 12 5.066406 C 11.453125 4.632812 10.777344 4.398438 10.070312 4.398438 L 4.367188 4.398438 C 2.402344 4.398438 0.800781 6 0.800781 7.96875 L 0.800781 9.023438 C 0.324219 9.300781 0 9.808594 0 10.398438 L 0 18.398438 L 0.398438 18.398438 L 0.398438 19.601562 L 2.800781 19.601562 L 2.800781 18.398438 L 21.199219 18.398438 L 21.199219 19.601562 L 23.601562 19.601562 L 23.601562 18.398438 L 24 18.398438 Z M 3.199219 12 L 10.070312 12 C 10.691406 12 11.277344 12.242188 11.71875 12.683594 L 12 12.964844 L 12.28125 12.683594 C 12.722656 12.242188 13.308594 12 13.929688 12 L 20.800781 12 L 20.800781 13.199219 L 3.199219 13.199219 Z M 21.601562 14 L 21.601562 10.519531 C 21.601562 10.152344 21.792969 9.824219 22.089844 9.675781 C 22.171875 9.636719 22.253906 9.617188 22.332031 9.605469 C 22.347656 9.605469 22.367188 9.601562 22.382812 9.601562 C 22.414062 9.601562 22.441406 9.605469 22.46875 9.609375 C 22.488281 9.609375 22.507812 9.609375 22.523438 9.613281 C 22.570312 9.621094 22.617188 9.632812 22.664062 9.652344 L 22.730469 9.671875 C 23.007812 9.796875 23.199219 10.078125 23.199219 10.398438 L 23.199219 17.601562 L 21.601562 17.601562 Z M 19.632812 5.199219 C 21.15625 5.199219 22.398438 6.441406 22.398438 7.96875 L 22.398438 8.800781 C 21.519531 8.800781 20.800781 9.519531 20.800781 10.398438 L 20.800781 11.199219 L 13.929688 11.199219 C 13.386719 11.199219 12.863281 11.339844 12.398438 11.601562 L 12.398438 5.777344 C 12.824219 5.40625 13.363281 5.199219 13.929688 5.199219 Z M 1.601562 7.96875 C 1.601562 6.441406 2.84375 5.199219 4.367188 5.199219 L 10.070312 5.199219 C 10.636719 5.199219 11.175781 5.40625 11.601562 5.777344 L 11.601562 11.601562 C 11.136719 11.339844 10.613281 11.199219 10.070312 11.199219 L 3.199219 11.199219 L 3.199219 10.398438 C 3.199219 9.519531 2.480469 8.800781 1.601562 8.800781 Z M 0.800781 10.398438 C 0.800781 10.078125 0.992188 9.796875 1.269531 9.671875 L 1.335938 9.652344 C 1.382812 9.632812 1.429688 9.621094 1.476562 9.613281 C 1.492188 9.609375 1.511719 9.609375 1.53125 9.605469 C 1.558594 9.605469 1.585938 9.601562 1.617188 9.601562 C 1.632812 9.601562 1.648438 9.605469 1.667969 9.605469 C 1.746094 9.617188 1.828125 9.636719 1.910156 9.675781 C 2.207031 9.824219 2.398438 10.152344 2.398438 10.519531 L 2.398438 17.601562 L 0.800781 17.601562 Z M 2 18.800781 L 1.199219 18.800781 L 1.199219 18.398438 L 2 18.398438 Z M 20.800781 17.601562 L 3.199219 17.601562 L 3.199219 14 L 20.800781 14 Z M 22.800781 18.800781 L 22 18.800781 L 22 18.398438 L 22.800781 18.398438 Z M 22.800781 18.800781"/>
    <path d="M5.71875 9.082031C5.796875 9.160156 5.898438 9.199219 6 9.199219 6.101562 9.199219 6.203125 9.160156 6.28125 9.082031L6.800781 8.566406 7.316406 9.082031C7.394531 9.160156 7.496094 9.199219 7.601562 9.199219 7.703125 9.199219 7.804688 9.160156 7.882812 9.082031 8.039062 8.925781 8.039062 8.671875 7.882812 8.515625L7.367188 8 7.882812 7.484375C8.039062 7.328125 8.039062 7.074219 7.882812 6.917969 7.726562 6.761719 7.472656 6.761719 7.316406 6.917969L6.800781 7.433594 6.28125 6.917969C6.125 6.761719 5.875 6.761719 5.71875 6.917969 5.5625 7.074219 5.5625 7.328125 5.71875 7.484375L6.234375 8 5.71875 8.515625C5.5625 8.671875 5.5625 8.925781 5.71875 9.082031zM16.117188 9.082031C16.195312 9.160156 16.296875 9.199219 16.398438 9.199219 16.503906 9.199219 16.605469 9.160156 16.683594 9.082031L17.199219 8.566406 17.71875 9.082031C17.796875 9.160156 17.898438 9.199219 18 9.199219 18.101562 9.199219 18.203125 9.160156 18.28125 9.082031 18.4375 8.925781 18.4375 8.671875 18.28125 8.515625L17.765625 8 18.28125 7.484375C18.4375 7.328125 18.4375 7.074219 18.28125 6.917969 18.125 6.761719 17.875 6.761719 17.71875 6.917969L17.199219 7.433594 16.683594 6.917969C16.527344 6.761719 16.273438 6.761719 16.117188 6.917969 15.960938 7.074219 15.960938 7.328125 16.117188 7.484375L16.632812 8 16.117188 8.515625C15.960938 8.671875 15.960938 8.925781 16.117188 9.082031zM16.117188 9.082031"/>
</svg>

<svg xmlns="http://www.w3.org/2000/svg" width="32" height="32" viewBox="0 0 24 24">
    <path d="M24 10.398a1.59 1.59 0 0 0-.8-1.375V7.97a3.573 3.573 0 0 0-3.567-3.57H13.93c-.707 0-1.383.234-1.93.667a3.094 3.094 0 0 0-1.93-.668H4.367a3.573 3.573 0 0 0-3.566 3.57v1.055A1.59 1.59 0 0 0 0 10.398v8h.398v1.204h2.403v-1.204h18.398v1.204h2.403v-1.204H24zM3.2 12h6.87c.621 0 1.207.242 1.649.684l.281.28.281-.28A2.317 2.317 0 0 1 13.93 12h6.87v1.2H3.2zm18.402 2v-3.48c0-.368.191-.696.488-.844a.846.846 0 0 1 .242-.07c.016 0 .035-.004.05-.004.032 0 .06.003.087.007a.63.63 0 0 1 .195.043l.066.02a.799.799 0 0 1 .47.726v7.204h-1.598zm-1.97-8.8a2.772 2.772 0 0 1 2.766 2.769V8.8c-.878 0-1.597.719-1.597 1.597v.801H13.93c-.543 0-1.067.14-1.532.403V5.777A2.325 2.325 0 0 1 13.93 5.2zM1.603 7.968a2.772 2.772 0 0 1 2.765-2.77h5.703c.567 0 1.106.207 1.532.578v5.825a3.112 3.112 0 0 0-1.532-.403H3.2v-.8c0-.88-.72-1.598-1.598-1.598zM.8 10.399c0-.32.191-.602.469-.727l.066-.02a.63.63 0 0 1 .14-.039c.016-.004.036-.004.055-.008.028 0 .055-.003.086-.003.016 0 .031.003.051.003.078.012.16.032.242.07.297.15.488.477.488.845v7.082H.801zM2 18.8h-.8v-.403H2zm18.8-1.2H3.2V14h17.6zm2 1.2H22v-.403h.8zm0 0"/>
    <path d="M5.719 9.082a.396.396 0 0 0 .562 0l.52-.516.515.516a.399.399 0 0 0 .567 0 .4.4 0 0 0 0-.566L7.367 8l.516-.516a.4.4 0 0 0-.567-.566l-.515.516-.52-.516a.396.396 0 0 0-.562 0 .4.4 0 0 0 0 .566L6.234 8l-.515.516a.4.4 0 0 0 0 .566zm0 0M16.117 9.082a.399.399 0 0 0 .566 0l.516-.516.52.516a.396.396 0 0 0 .562 0 .4.4 0 0 0 0-.566L17.766 8l.515-.516a.4.4 0 0 0 0-.566.396.396 0 0 0-.562 0l-.52.516-.515-.516a.4.4 0 0 0-.567.566l.516.516-.516.516a.4.4 0 0 0 0 .566zm0 0"/>
</svg>
